Sweet-Rainbow/icons/audio-volume-muted.svg

<?xml version="1.0" encoding="UTF-8" standalone="no"?>
<!-- Generator: Gravit.io -->

<svg
   xmlns:dc="http://purl.org/dc/elements/1.1/"
   xmlns:cc="http://creativecommons.org/ns#"
   xmlns:rdf="http://www.w3.org/1999/02/22-rdf-syntax-ns#"
   xmlns:svg="http://www.w3.org/2000/svg"
   xmlns="http://www.w3.org/2000/svg"
   xmlns:sodipodi="http://sodipodi.sourceforge.net/DTD/sodipodi-0.dtd"
   xmlns:inkscape="http://www.inkscape.org/namespaces/inkscape"
   style="isolation:isolate"
   viewBox="0 0 36 36"
   width="48"
   height="48"
   version="1.1"
   id="svg11"
   sodipodi:docname="audio-volume-muted.svg"
   inkscape:version="0.92.4 (5da689c313, 2019-01-14)">
  <metadata
     id="metadata17">
    <rdf:RDF>
      <cc:Work
         rdf:about="">
        <dc:format>image/svg+xml</dc:format>
        <dc:type
           rdf:resource="http://purl.org/dc/dcmitype/StillImage" />
        <dc:title></dc:title>
      </cc:Work>
    </rdf:RDF>
  </metadata>
  <defs
     id="defs15" />
  <sodipodi:namedview
     pagecolor="#ffffff"
     bordercolor="#666666"
     borderopacity="1"
     objecttolerance="10"
     gridtolerance="10"
     guidetolerance="10"
     inkscape:pageopacity="0"
     inkscape:pageshadow="2"
     inkscape:window-width="1280"
     inkscape:window-height="947"
     id="namedview13"
     showgrid="false"
     inkscape:zoom="58.236951"
     inkscape:cx="31.234542"
     inkscape:cy="36.911645"
     inkscape:window-x="0"
     inkscape:window-y="0"
     inkscape:window-maximized="1"
     inkscape:current-layer="svg11"
     units="px" />
  <linearGradient
     id="_lgradient_24"
     x1="0.51007318"
     y1="1.0013647"
     x2="0.51007318"
     y2="-0.0024373119"
     gradientTransform="matrix(38,0,0,44,5,2)"
     gradientUnits="userSpaceOnUse">
    <stop
       offset="1.3043478260869565%"
       stop-opacity="1"
       style="stop-color:rgb(254,172,94)"
       id="stop2" />
    <stop
       offset="0"
       stop-opacity="1"
       style="stop-color:rgb(199,121,208)"
       id="stop4" />
    <stop
       offset="99.56521739130434%"
       stop-opacity="1"
       style="stop-color:rgb(75,192,200)"
       id="stop6" />
  </linearGradient>
  <g
     id="g820"
     transform="matrix(0.81818182,0,0,0.81818182,-1.6363637,-1.6363637)">
    <path
       style="fill:url(#_lgradient_24);fill-rule:evenodd"
       id="path9"
       d="m 39,26 v 0 c 0,-1.104 0.896,-2 2,-2 v 0 c 1.104,0 2,0.896 2,2 v 0 15 c 0,2.76 -2.24,5 -5,5 H 10 C 7.24,46 5,43.76 5,41 V 7 C 5,4.24 7.24,2 10,2 h 28 c 2.76,0 5,2.24 5,5 v 7 0 c 0,1.104 -0.896,2 -2,2 v 0 c -1.104,0 -2,-0.896 -2,-2 V 14 9 C 39,7.344 37.656,6 36,6 H 12 C 10.344,6 9,7.344 9,9 v 30 c 0,1.656 1.344,3 3,3 h 24 c 1.656,0 3,-1.344 3,-3 z m -7.179,4.122 v 0 c -0.032,-0.801 0.593,-1.476 1.395,-1.505 v 0 c 0.802,-0.028 1.479,0.599 1.511,1.401 v 0 l 0.023,0.674 c 0,0.023 0,0.035 0,0.058 0,2.847 -1.139,5.59 -3.149,7.601 C 29.59,40.361 26.847,41.5 24,41.5 c -2.847,0 -5.59,-1.139 -7.601,-3.149 -2.01,-2.011 -3.149,-4.754 -3.149,-7.601 0,-2.847 1.139,-5.59 3.149,-7.601 C 18.41,21.139 21.153,20 24,20 c 2.998,0 5.857,1.255 7.891,3.452 v 0 c 0.545,0.59 0.509,1.511 -0.081,2.057 v 0 c -0.59,0.545 -1.512,0.508 -2.057,-0.082 v 0 C 28.277,23.824 26.185,22.905 24,22.905 c -2.08,0 -4.079,0.826 -5.544,2.301 -1.475,1.465 -2.301,3.464 -2.301,5.544 0,2.08 0.826,4.079 2.301,5.544 1.465,1.475 3.464,2.301 5.544,2.301 2.08,0 4.068,-0.826 5.544,-2.29 1.464,-1.464 2.289,-3.451 2.301,-5.532 z M 22.361,10.64 v 0 c -0.528,0.304 -1.203,0.121 -1.507,-0.407 v 0 C 20.55,9.705 20.733,9.03 21.261,8.726 v 0 C 22.097,8.253 23.043,8 24,8 c 1.463,0 2.86,0.583 3.894,1.606 1.023,1.034 1.606,2.431 1.606,3.894 0,1.463 -0.583,2.86 -1.606,3.894 C 26.86,18.417 25.463,19 24,19 22.537,19 21.14,18.417 20.106,17.394 19.083,16.36 18.5,14.963 18.5,13.5 c 0,-0.275 0.022,-0.539 0.055,-0.803 v 0 c 0.091,-0.601 0.653,-1.018 1.254,-0.93 v 0 c 0.601,0.089 1.015,0.648 0.924,1.249 v 0 C 20.711,13.17 20.7,13.335 20.7,13.5 c 0,0.88 0.352,1.716 0.968,2.332 0.616,0.616 1.452,0.968 2.332,0.968 0.88,0 1.716,-0.352 2.332,-0.968 C 26.948,15.216 27.3,14.38 27.3,13.5 27.3,12.62 26.948,11.784 26.332,11.168 25.716,10.552 24.88,10.2 24,10.2 c -0.572,0 -1.144,0.154 -1.639,0.44 z M 22,30.75 c 0,-0.53 0.21,-1.04 0.59,-1.41 0.37,-0.38 0.88,-0.59 1.41,-0.59 0.53,0 1.04,0.21 1.41,0.59 0.38,0.37 0.59,0.88 0.59,1.41 0,0.53 -0.21,1.04 -0.59,1.41 -0.37,0.38 -0.88,0.59 -1.41,0.59 v 0 c -0.53,0 -1.04,-0.21 -1.41,-0.59 C 22.21,31.79 22,31.28 22,30.75 Z M 23,13.5 c 0,-0.552 0.448,-1 1,-1 0.552,0 1,0.448 1,1 0,0.552 -0.448,1 -1,1 -0.552,0 -1,-0.448 -1,-1 z M 10,9.5 C 10,8.672 10.672,8 11.5,8 12.328,8 13,8.672 13,9.5 13,10.328 12.328,11 11.5,11 10.672,11 10,10.328 10,9.5 Z m 25,0 C 35,8.672 35.672,8 36.5,8 37.328,8 38,8.672 38,9.5 38,10.328 37.328,11 36.5,11 35.672,11 35,10.328 35,9.5 Z m 0,29 C 35,37.672 35.672,37 36.5,37 37.328,37 38,37.672 38,38.5 38,39.328 37.328,40 36.5,40 35.672,40 35,39.328 35,38.5 Z m -25,0 C 10,37.672 10.672,37 11.5,37 12.328,37 13,37.672 13,38.5 13,39.328 12.328,40 11.5,40 10.672,40 10,39.328 10,38.5 Z m 10,-7.75 c 0,-1.06 0.42,-2.08 1.17,-2.83 0.75,-0.75 1.77,-1.17 2.83,-1.17 1.06,0 2.08,0.42 2.83,1.17 0.75,0.75 1.17,1.77 1.17,2.83 0,1.06 -0.42,2.08 -1.17,2.83 -0.75,0.75 -1.77,1.17 -2.83,1.17 v 0 c -1.06,0 -2.08,-0.42 -2.83,-1.17 C 20.42,32.83 20,31.81 20,30.75 Z M 39,20 c 0,-1.104 0.896,-2 2,-2 1.104,0 2,0.896 2,2 0,1.104 -0.896,2 -2,2 -1.104,0 -2,-0.896 -2,-2 z"
       inkscape:connector-curvature="0" />
  </g>
</svg>

<?xml version="1.0" encoding="UTF-8" standalone="no"?>
<!-- Generator: Gravit.io -->

<svg
   xmlns:dc="http://purl.org/dc/elements/1.1/"
   xmlns:cc="http://creativecommons.org/ns#"
   xmlns:rdf="http://www.w3.org/1999/02/22-rdf-syntax-ns#"
   xmlns:svg="http://www.w3.org/2000/svg"
   xmlns="http://www.w3.org/2000/svg"
   xmlns:sodipodi="http://sodipodi.sourceforge.net/DTD/sodipodi-0.dtd"
   xmlns:inkscape="http://www.inkscape.org/namespaces/inkscape"
   style="isolation:isolate"
   viewBox="0 0 48 48"
   width="48pt"
   height="48pt"
   version="1.1"
   id="svg11"
   sodipodi:docname="audio-volume-muted.svg"
   inkscape:version="0.92.4 (5da689c313, 2019-01-14)">
  <metadata
     id="metadata17">
    <rdf:RDF>
      <cc:Work
         rdf:about="">
        <dc:format>image/svg+xml</dc:format>
        <dc:type
           rdf:resource="http://purl.org/dc/dcmitype/StillImage" />
        <dc:title></dc:title>
      </cc:Work>
    </rdf:RDF>
  </metadata>
  <defs
     id="defs15" />
  <sodipodi:namedview
     pagecolor="#ffffff"
     bordercolor="#666666"
     borderopacity="1"
     objecttolerance="10"
     gridtolerance="10"
     guidetolerance="10"
     inkscape:pageopacity="0"
     inkscape:pageshadow="2"
     inkscape:window-width="1280"
     inkscape:window-height="947"
     id="namedview13"
     showgrid="false"
     inkscape:zoom="7.375"
     inkscape:cx="34.600103"
     inkscape:cy="36.911645"
     inkscape:window-x="0"
     inkscape:window-y="0"
     inkscape:window-maximized="1"
     inkscape:current-layer="svg11" />
  <linearGradient
     id="_lgradient_24"
     x1="0.51007318"
     y1="1.0013647"
     x2="0.51007318"
     y2="-0.0024373119"
     gradientTransform="matrix(38,0,0,44,5,2)"
     gradientUnits="userSpaceOnUse">
    <stop
       offset="1.3043478260869565%"
       stop-opacity="1"
       style="stop-color:rgb(254,172,94)"
       id="stop2" />
    <stop
       offset="0"
       stop-opacity="1"
       style="stop-color:rgb(199,121,208)"
       id="stop4" />
    <stop
       offset="99.56521739130434%"
       stop-opacity="1"
       style="stop-color:rgb(75,192,200)"
       id="stop6" />
  </linearGradient>
  <path
     d=" M 39 26 L 39 26 C 39 24.896 39.896 24 41 24 L 41 24 C 42.104 24 43 24.896 43 26 L 43 26 L 43 41 C 43 43.76 40.76 46 38 46 L 10 46 C 7.24 46 5 43.76 5 41 L 5 7 C 5 4.24 7.24 2 10 2 L 38 2 C 40.76 2 43 4.24 43 7 L 43 14 L 43 14 C 43 15.104 42.104 16 41 16 L 41 16 C 39.896 16 39 15.104 39 14 L 39 14 L 39 9 C 39 7.344 37.656 6 36 6 L 12 6 C 10.344 6 9 7.344 9 9 L 9 39 C 9 40.656 10.344 42 12 42 L 36 42 C 37.656 42 39 40.656 39 39 L 39 26 L 39 26 L 39 26 L 39 26 L 39 26 L 39 26 L 39 26 L 39 26 L 39 26 Z  M 31.821 30.122 L 31.821 30.122 C 31.789 29.321 32.414 28.646 33.216 28.617 L 33.216 28.617 C 34.018 28.589 34.695 29.216 34.727 30.018 L 34.727 30.018 L 34.75 30.692 C 34.75 30.715 34.75 30.727 34.75 30.75 C 34.75 33.597 33.611 36.34 31.601 38.351 C 29.59 40.361 26.847 41.5 24 41.5 C 21.153 41.5 18.41 40.361 16.399 38.351 C 14.389 36.34 13.25 33.597 13.25 30.75 C 13.25 27.903 14.389 25.16 16.399 23.149 C 18.41 21.139 21.153 20 24 20 C 26.998 20 29.857 21.255 31.891 23.452 L 31.891 23.452 C 32.436 24.042 32.4 24.963 31.81 25.509 L 31.81 25.509 C 31.22 26.054 30.298 26.017 29.753 25.427 L 29.753 25.427 C 28.277 23.824 26.185 22.905 24 22.905 C 21.92 22.905 19.921 23.731 18.456 25.206 C 16.981 26.671 16.155 28.67 16.155 30.75 C 16.155 32.83 16.981 34.829 18.456 36.294 C 19.921 37.769 21.92 38.595 24 38.595 C 26.08 38.595 28.068 37.769 29.544 36.305 C 31.008 34.841 31.833 32.854 31.845 30.773 L 31.821 30.122 L 31.821 30.122 L 31.821 30.122 L 31.821 30.122 L 31.821 30.122 L 31.821 30.122 L 31.821 30.122 L 31.821 30.122 L 31.821 30.122 Z  M 22.361 10.64 L 22.361 10.64 C 21.833 10.944 21.158 10.761 20.854 10.233 L 20.854 10.233 C 20.55 9.705 20.733 9.03 21.261 8.726 L 21.261 8.726 C 22.097 8.253 23.043 8 24 8 C 25.463 8 26.86 8.583 27.894 9.606 C 28.917 10.64 29.5 12.037 29.5 13.5 C 29.5 14.963 28.917 16.36 27.894 17.394 C 26.86 18.417 25.463 19 24 19 C 22.537 19 21.14 18.417 20.106 17.394 C 19.083 16.36 18.5 14.963 18.5 13.5 C 18.5 13.225 18.522 12.961 18.555 12.697 L 18.555 12.697 C 18.646 12.096 19.208 11.679 19.809 11.767 L 19.809 11.767 C 20.41 11.856 20.824 12.415 20.733 13.016 L 20.733 13.016 C 20.711 13.17 20.7 13.335 20.7 13.5 C 20.7 14.38 21.052 15.216 21.668 15.832 C 22.284 16.448 23.12 16.8 24 16.8 C 24.88 16.8 25.716 16.448 26.332 15.832 C 26.948 15.216 27.3 14.38 27.3 13.5 C 27.3 12.62 26.948 11.784 26.332 11.168 C 25.716 10.552 24.88 10.2 24 10.2 C 23.428 10.2 22.856 10.354 22.361 10.64 L 22.361 10.64 L 22.361 10.64 L 22.361 10.64 L 22.361 10.64 L 22.361 10.64 L 22.361 10.64 L 22.361 10.64 Z  M 22 30.75 C 22 30.22 22.21 29.71 22.59 29.34 C 22.96 28.96 23.47 28.75 24 28.75 C 24.53 28.75 25.04 28.96 25.41 29.34 C 25.79 29.71 26 30.22 26 30.75 C 26 31.28 25.79 31.79 25.41 32.16 C 25.04 32.54 24.53 32.75 24 32.75 L 24 32.75 C 23.47 32.75 22.96 32.54 22.59 32.16 C 22.21 31.79 22 31.28 22 30.75 L 22 30.75 L 22 30.75 L 22 30.75 L 22 30.75 L 22 30.75 L 22 30.75 L 22 30.75 Z  M 23 13.5 C 23 12.948 23.448 12.5 24 12.5 C 24.552 12.5 25 12.948 25 13.5 C 25 14.052 24.552 14.5 24 14.5 C 23.448 14.5 23 14.052 23 13.5 L 23 13.5 L 23 13.5 L 23 13.5 L 23 13.5 L 23 13.5 Z  M 10 9.5 C 10 8.672 10.672 8 11.5 8 C 12.328 8 13 8.672 13 9.5 C 13 10.328 12.328 11 11.5 11 C 10.672 11 10 10.328 10 9.5 L 10 9.5 L 10 9.5 L 10 9.5 L 10 9.5 Z  M 35 9.5 C 35 8.672 35.672 8 36.5 8 C 37.328 8 38 8.672 38 9.5 C 38 10.328 37.328 11 36.5 11 C 35.672 11 35 10.328 35 9.5 L 35 9.5 L 35 9.5 L 35 9.5 Z  M 35 38.5 C 35 37.672 35.672 37 36.5 37 C 37.328 37 38 37.672 38 38.5 C 38 39.328 37.328 40 36.5 40 C 35.672 40 35 39.328 35 38.5 L 35 38.5 L 35 38.5 Z  M 10 38.5 C 10 37.672 10.672 37 11.5 37 C 12.328 37 13 37.672 13 38.5 C 13 39.328 12.328 40 11.5 40 C 10.672 40 10 39.328 10 38.5 L 10 38.5 Z  M 20 30.75 C 20 29.69 20.42 28.67 21.17 27.92 C 21.92 27.17 22.94 26.75 24 26.75 C 25.06 26.75 26.08 27.17 26.83 27.92 C 27.58 28.67 28 29.69 28 30.75 C 28 31.81 27.58 32.83 26.83 33.58 C 26.08 34.33 25.06 34.75 24 34.75 L 24 34.75 C 22.94 34.75 21.92 34.33 21.17 33.58 C 20.42 32.83 20 31.81 20 30.75 L 20 30.75 L 20 30.75 L 20 30.75 L 20 30.75 L 20 30.75 L 20 30.75 L 20 30.75 Z  M 39 20 C 39 18.896 39.896 18 41 18 C 42.104 18 43 18.896 43 20 C 43 21.104 42.104 22 41 22 C 39.896 22 39 21.104 39 20 Z "
     fill-rule="evenodd"
     fill="url(#_lgradient_24)"
     id="path9"
     style="fill:url(#_lgradient_24)" />
</svg>
